X: 7745
T: Colonel Rodney's
R: reel
M: 4/4
K: Gmajor
e|d ~G3 dGBc|dgfg edcB|c ~A3 eABd|e2 (3def gedc|
B ~G3 dGBc|dgfg edcB|cdef gfge|dggd BGG||
e|(3ded d2 GdBd|dgfg egdg|e2 {d}e2 Aece|aGgG =fGce|
d2 {c}d2 GdBd|dgfg egdB|cdef gfge|dggd BGG||

